img/svg/icon-font/area.svg

<svg width="20" height="20" viewBox="0 0 20 20" fill="none" xmlns="http://www.w3.org/2000/svg">
<g clip-path="url(#clip0)">
<path d="M19.427 15.6892C20.1886 16.4508 20.1886 17.6898 19.427 18.4513C19.4259 18.4526 19.4247 18.4536 19.4235 18.4549L18.0871 19.7746C17.9348 19.9249 17.7365 20 17.5383 20C17.3365 20 17.1351 19.9224 16.9822 19.7677C16.6792 19.4607 16.6823 18.966 16.9893 18.6628L17.7711 17.8906H5.23346C3.51028 17.8906 2.10846 16.4888 2.10846 14.7656V2.20901L1.32904 2.97805C1.02189 3.28109 0.527197 3.27773 0.224158 2.97058C-0.0788812 2.66342 -0.0755242 2.16873 0.231635 1.86569L1.55152 0.563659C2.31095 -0.185546 3.5466 -0.185546 4.30603 0.563659L5.62591 1.86569C5.93307 2.16873 5.93643 2.66342 5.63339 2.97058C5.48049 3.12545 5.27893 3.20312 5.07721 3.20312C4.87899 3.20312 4.68078 3.1282 4.5285 2.97805L3.67096 2.13195V14.7656C3.67096 15.6271 4.37195 16.3281 5.23346 16.3281H17.8503L16.9893 15.4777C16.6823 15.1745 16.6791 14.6798 16.9822 14.3728C17.2854 14.066 17.7801 14.0628 18.0871 14.366L19.4235 15.6857C19.4247 15.6869 19.4259 15.688 19.427 15.6892ZM17.6553 0H7.53814C7.10555 0 6.75536 0.351562 6.75689 0.784148C6.75857 1.21444 7.10784 1.5625 7.53814 1.5625H17.6553C18.0868 1.5625 18.4366 1.91223 18.4366 2.34375V12.5C18.4366 12.9303 18.7846 13.2797 19.2149 13.2812C19.6475 13.2827 19.9991 12.9326 19.9991 12.5V2.34375C19.9991 1.04934 18.9497 0 17.6553 0ZM11.4834 13.3941C11.915 13.3941 12.2647 13.0444 12.2647 12.6129V9.13572C12.2647 7.95103 11.3009 6.98729 10.1163 6.98729C9.59731 6.98729 9.12078 7.17223 8.74907 7.47969C8.37737 7.17223 7.90084 6.98729 7.38189 6.98729C7.08389 6.98729 6.79977 7.04848 6.54159 7.15865C6.40258 7.03139 6.21795 6.95311 6.0147 6.95311C5.58319 6.95311 5.23346 7.30284 5.23346 7.73436V12.6172C5.23346 13.0487 5.58319 13.3984 6.0147 13.3984C6.44622 13.3984 6.79595 13.0487 6.79595 12.6172V9.13572C6.79595 8.8127 7.05886 8.54979 7.38189 8.54979C7.70492 8.54979 7.96782 8.8127 7.96782 9.13572V12.6172C7.96782 13.0487 8.31756 13.3984 8.74907 13.3984C9.18059 13.3984 9.53032 13.0487 9.53032 12.6172V9.13572C9.53032 8.8127 9.79323 8.54979 10.1163 8.54979C10.4393 8.54979 10.7022 8.8127 10.7022 9.13572V12.6129C10.7022 13.0444 11.0519 13.3941 11.4834 13.3941ZM15.0284 4.21874C15.0242 4.21874 15.0203 4.21935 15.0162 4.21935C15.0122 4.21935 15.0082 4.21874 15.0041 4.21874C14.0106 4.21874 13.2022 5.02807 13.2022 6.02278C13.2022 6.45415 13.5519 6.80403 13.9834 6.80403C14.415 6.80403 14.7647 6.45415 14.7647 6.02278C14.7647 5.89186 14.8744 5.78124 15.0041 5.78124C15.0082 5.78124 15.0122 5.78063 15.0163 5.78063C15.0203 5.78063 15.0242 5.78124 15.0284 5.78124C15.1527 5.78124 15.2586 5.88286 15.2672 6.00661C15.2517 6.06383 15.132 6.41768 14.3834 7.2412C13.919 7.75175 13.4628 8.16756 13.4584 8.17152C13.2193 8.3885 13.1384 8.7303 13.2547 9.03135C13.371 9.33256 13.6606 9.53123 13.9834 9.53123H16.0928C16.5243 9.53123 16.8741 9.1815 16.8741 8.74998C16.8741 8.31847 16.5243 7.96873 16.0928 7.96873H15.8241C16.5178 7.15209 16.8303 6.54433 16.8303 6.02278C16.8303 5.02807 16.0219 4.21874 15.0284 4.21874Z" fill="#4C51CB"/>
</g>
<defs>
<clipPath id="clip0">
<rect width="20" height="20" fill="white"/>
</clipPath>
</defs>
</svg>

<svg width="20" height="20" fill="none" xmlns="http://www.w3.org/2000/svg"><g clip-path="url(#clip0)"><path d="M19.427 15.69c.762.76.762 2 0 2.761l-.003.004-1.337 1.32a.779.779 0 01-1.105-.007.781.781 0 01.007-1.105l.782-.772H5.233a3.128 3.128 0 01-3.125-3.125V2.209l-.779.769A.781.781 0 01.232 1.866L1.552.564a1.967 1.967 0 012.754 0l1.32 1.302a.781.781 0 01-1.098 1.112l-.857-.846v12.634c0 .861.701 1.562 1.562 1.562H17.85l-.86-.85a.781.781 0 011.097-1.112l1.337 1.32.003.003zM17.655 0H7.538a.781.781 0 000 1.563h10.117c.432 0 .782.35.782.78V12.5a.781.781 0 101.562 0V2.344A2.344 2.344 0 0017.655 0zm-6.172 13.394c.432 0 .782-.35.782-.781V9.136a2.15 2.15 0 00-2.149-2.149c-.519 0-.995.185-1.367.493a2.138 2.138 0 00-2.207-.321.781.781 0 00-1.308.576v4.882a.781.781 0 101.562 0V9.136a.587.587 0 011.172 0v3.481a.781.781 0 101.562 0V9.136a.587.587 0 011.172 0v3.477c0 .431.35.781.781.781zm3.545-9.175h-.024c-.993 0-1.802.81-1.802 1.804a.781.781 0 001.563 0c0-.131.11-.242.24-.242h.023c.125 0 .23.102.24.226-.016.057-.136.41-.885 1.234-.464.51-.92.927-.925.93a.781.781 0 00.525 1.36h2.11a.781.781 0 100-1.562h-.269c.694-.817 1.006-1.425 1.006-1.946 0-.995-.808-1.804-1.802-1.804z" fill="#4C51CB"/></g><defs><clipPath id="clip0"><path fill="#fff" d="M0 0h20v20H0z"/></clipPath></defs></svg>
